X: 2444
T: MERRY BELLS POLKA
R: polka
B: Kerr's v.2 p.51 #344
Z: 2016 John Chambers <jc:trillian.mit.edu>
M: 2/4
L: 1/8
K: G
B/c/ |\
(dB)BB | ce e/^d/e | df fe/f/ | gbd B/c/ |\
(dB)BB | ce e/^d/e | df fe/f/ | gggz :|\
d2 f2 | ee g2 | ^c2 g2 | ff a2 |
(ag)gg | ^c3 A/c/ | (gf)ff | dA/A/ AA |\
d2 f2 | ee g2 | ^c2 g2 | ff a2 |\
(ag)gg | (gf)ff | (fe)ee | dfdz |]
